X:039
T:Drowsy Maggie setting 1 (r)
B:NFID.235b
039dr_magg1
S:PT
L:1/8
M:C
R:reel
Q:360
K:Em % dor
EDBE dEBE|EDB^c dAFD|EDE^c d2ed|^cABc dAFD|
EDBE dEBE|BAB^c dAFD|EDE^c d2ed|^cABc dAFD||
dffe dfBf|dffe ^ceAc|dffe dfff|fef^g ae^ce|
dffe dfBf|dffe ^ceAc|afge fded|BAB^c dAFD||

%%%

